suite-common/icons/assets/icons/questionLight.svg

<svg xmlns="http://www.w3.org/2000/svg" xml:space="preserve" fill="none" viewBox="0 0 20 20">
  <path fill="#000" fill-rule="evenodd" d="M9.133 1.806c-.984.092-2.201.473-3.086.965C4.179 3.81 2.848 5.41 2.184 7.414a8.24 8.24 0 0 0 2.649 9.006c1.864 1.51 4.391 2.13 6.767 1.661A8.23 8.23 0 0 0 18.233 10a8.24 8.24 0 0 0-3.066-6.42A8.35 8.35 0 0 0 10.8 1.802a11 11 0 0 0-1.667.004m1.884 1.51c2.618.405 4.812 2.354 5.496 4.884.382 1.414.315 2.878-.195 4.2a6.82 6.82 0 0 1-5.33 4.29c-.505.078-1.471.078-1.976 0a6.82 6.82 0 0 1-5.316-4.249 8 8 0 0 1-.386-1.453c-.078-.505-.078-1.471 0-1.976A6.81 6.81 0 0 1 7.6 3.681a7.6 7.6 0 0 1 1.5-.378l.417-.05c.199-.029 1.174.013 1.5.063M9.7 5.535a2.7 2.7 0 0 0-1.017.299 2.8 2.8 0 0 0-1.299 1.309 2.6 2.6 0 0 0-.295 1.174c-.005.307.001.345.084.486a.74.74 0 0 0 1.115.188c.161-.141.234-.302.262-.574.045-.455.163-.724.437-.996A1.4 1.4 0 0 1 10 7c.795 0 1.434.638 1.433 1.43-.001.426-.119.713-.418 1.018-.252.256-.499.37-.934.43-.362.051-.482.098-.621.244-.164.173-.193.298-.193.819.001.554.037.672.266.867a.71.71 0 0 0 .934 0c.144-.123.264-.333.266-.462 0-.057.037-.084.174-.128 1.94-.635 2.642-3.012 1.363-4.616-.604-.759-1.572-1.16-2.57-1.067m-.017 7.827a.9.9 0 0 0-.416.455.85.85 0 0 0 .09.663c.225.319.596.433.937.286.772-.332.538-1.469-.301-1.465a.9.9 0 0 0-.31.061"/>
</svg>

<svg xmlns="http://www.w3.org/2000/svg" xml:space="preserve" fill="none" viewBox="0 0 20 20"><path d="M9.133 1.806 C 8.149 1.898,6.932 2.279,6.047 2.771 C 4.179 3.810,2.848 5.410,2.184 7.414 C 1.104 10.674,2.157 14.252,4.833 16.420 C 6.697 17.930,9.224 18.550,11.600 18.081 C 15.456 17.319,18.233 13.936,18.233 10.000 C 18.233 7.503,17.112 5.155,15.167 3.580 C 13.954 2.597,12.348 1.943,10.800 1.802 C 10.354 1.761,9.587 1.763,9.133 1.806 M11.017 3.316 C 13.635 3.721,15.829 5.670,16.513 8.200 C 16.895 9.614,16.828 11.078,16.318 12.400 C 15.439 14.682,13.413 16.313,10.988 16.690 C 10.483 16.768,9.517 16.768,9.012 16.690 C 6.602 16.316,4.601 14.716,3.696 12.441 C 3.551 12.076,3.378 11.424,3.310 10.988 C 3.232 10.483,3.232 9.517,3.310 9.012 C 3.687 6.584,5.312 4.565,7.600 3.681 C 8.006 3.525,8.706 3.348,9.100 3.303 C 9.274 3.283,9.462 3.260,9.517 3.253 C 9.716 3.224,10.691 3.266,11.017 3.316 M9.700 5.535 C 9.329 5.570,9.055 5.651,8.683 5.834 C 8.109 6.118,7.671 6.559,7.384 7.143 C 7.185 7.548,7.097 7.896,7.089 8.317 C 7.084 8.624,7.090 8.662,7.173 8.803 C 7.406 9.198,7.948 9.290,8.288 8.991 C 8.449 8.850,8.522 8.689,8.550 8.417 C 8.595 7.962,8.713 7.693,8.987 7.421 C 9.266 7.143,9.611 7.000,10.000 7.000 C 10.795 7.000,11.434 7.638,11.433 8.430 C 11.432 8.856,11.314 9.143,11.015 9.448 C 10.763 9.704,10.516 9.818,10.081 9.878 C 9.719 9.929,9.599 9.976,9.460 10.122 C 9.296 10.295,9.267 10.420,9.267 10.941 C 9.268 11.495,9.304 11.613,9.533 11.808 C 9.805 12.042,10.195 12.042,10.467 11.808 C 10.611 11.685,10.731 11.475,10.733 11.346 C 10.733 11.289,10.770 11.262,10.907 11.218 C 12.847 10.583,13.549 8.206,12.270 6.602 C 11.666 5.843,10.698 5.442,9.700 5.535 M9.683 13.362 C 9.517 13.438,9.321 13.652,9.267 13.817 C 9.201 14.015,9.242 14.316,9.357 14.480 C 9.582 14.799,9.953 14.913,10.294 14.766 C 11.066 14.434,10.832 13.297,9.993 13.301 C 9.895 13.301,9.757 13.328,9.683 13.362 " stroke="none" fill-rule="evenodd" fill="black"></path></svg>
